!!!!SEGMENT: pl-cz--iii-109--005_dankowski-adalbert--missa-c-sanctus.krn
!!!cenid: 18xx:784
!!!COM: Dankowski, Adalbert
!!!COM-rismID: pe30000793
!!!CDT: ~1760-~1836
!!!CNT: Polish
!!!OPR: Missa C
!!!OTL: Sanctus
!!!OMV: 005
!!!PDT:
!!!AGN: Sacred; Vespers
!!!SMS-siglum: PL-CZ
!!!SMS-shelfmark: III-109
!!!SMS-shelfwork: 001-005 M
!!!SMS-variant:
!!!SMS-altvar:
!!!NIFC-rismSourceID: 300000107
!!!NIFC-rismChildID: 300000107
!!!NIFC-islandoraID: pl-cz:34355
!!!URL-pdf-islandora: https://repozytorium.nifc.pl/islandora/object/pl-cz%3A34355/datastream/PDF/view
!!!URL-scan: https://polish.musicsources.pl/pl/lokalizacje/galeria/rekopisy/6827/1 @EN{Scan on Polish Music Sources Website} @PL{Skany w portalu Dziedzictwo Muzyki Polskiej w otwartym dostępie}
!!!IIIF:
!!!ONB-nifc: UWAGA: części Mszy: Kyrie, Gloria, Patrem, Et resurrexit, Sanctus, Benedictus,
!!!AIN: 1 alto 1 bass 2 cor 2 oboe 1 organ 1 soprn 1 tenor 2 violn
!!!key: C
**kern	**fba	**kern	**dynam	**kern	**dynam	**kern	**text	**kern	**text	**kern	**text	**kern	**text	**kern	**dynam	**kern	**dynam	**kern	**dynam	**kern	**dynam
*	*	*group4	*	*group4	*	*group3	*	*group3	*	*group3	*	*group3	*	*group2	*	*group2	*	*group1	*	*group1	*
*part11	*	*part10	*part10	*part9	*part9	*part8	*part8	*part7	*part7	*part6	*part6	*part5	*part5	*part4	*part4	*part3	*part3	*part2	*part2	*part1	*part1
*staff11	*	*staff10	*	*staff9	*	*staff8	*staff8	*staff7	*staff7	*staff6	*staff6	*staff5	*staff5	*staff4	*	*staff3	*	*staff2	*	*staff1	*
*I"Organo	*	*I"Violino Secondo	*	*I"Violino Primo	*	*I"Baſso	*	*I"Tenore	*	*I"Alto	*	*I"Canto	*	*I"Cornu Secondo Ex C:	*	*I"Cornu Primo Ex C:	*	*I"Oboe Secondo	*	*I"Oboe Primo	*
*I'org	*	*I'vl 2	*	*I'vl 1	*	*I'B	*	*I'T	*	*I'A	*	*I'S	*	*I'cor 2 in C	*	*I'cor 1 in C	*	*I'ob 2	*	*I'ob 1	*
*Iorgan	*	*Ivioln	*	*Ivioln	*	*Ibass	*	*Itenor	*	*Ialto	*	*Isoprn	*	*Icor	*	*Icor	*	*Ioboe	*	*Ioboe	*
*ICklav	*	*ICstr	*	*ICstr	*	*ICvox	*	*ICvox	*	*ICvox	*	*ICvox	*	*ICbras	*	*ICbras	*	*ICww	*	*ICww	*
*IGcont	*	*IGacmp	*	*IGacmp	*	*IGcoro	*	*IGcoro	*	*IGcoro	*	*IGcoro	*	*IGacmp	*	*IGacmp	*	*IGacmp	*	*IGacmp	*
*clefF4	*	*clefG2	*	*clefG2	*	*clefF4	*	*clefC4	*	*clefC3	*	*clefC1	*	*clefG2	*	*clefG2	*	*clefG2	*	*clefG2	*
*k[]	*	*k[]	*	*k[]	*	*k[]	*	*k[]	*	*k[]	*	*k[]	*	*k[]	*	*k[]	*	*k[]	*	*k[]	*
*C:	*	*C:	*	*C:	*	*C:	*	*C:	*	*C:	*	*C:	*	*C:	*	*C:	*	*C:	*	*C:	*
*M3/4	*	*M3/4	*	*M3/4	*	*M3/4	*	*M3/4	*	*M3/4	*	*M3/4	*	*M3/4	*	*M3/4	*	*M3/4	*	*M3/4	*
=1	=1	=1	=1	=1	=1	=1	=1	=1	=1	=1	=1	=1	=1	=1	=1	=1	=1	=1	=1	=1	=1
*	*	*	*	*	*	*2\right	*	*	*	*2\right	*	*2\right	*	*	*	*	*	*	*	*	*
!LO:TX:a:t=tutti	!	!	!	!	!	!	!	!	!	!	!	!	!	!	!	!	!	!	!	!	!
!LO:TX:a:rj:t=adag&colon;	!	!LO:TX:a:t=adagio	!	!LO:TX:a:rj:t=adag&colon;	!	!LO:TX:a:t=adagio&colon;	!	!LO:TX:a:t=adagio&colon;	!	!LO:TX:a:t=adag&colon;	!	!LO:TX:a:t=adag&colon;	!	!LO:TX:a:rj:t=adag&colon;	!LO:DY:a:t=f_	!LO:TX:a:t=adag&colon;	!	!LO:TX:a:t=adagio	!	!LO:TX:a:t=adagio&colon;	!
4C/	.	4e 4G/	.	4cc 4e/	.	2.c\	Sanc-	2.G/	Sanc-	2.e\	Sanc-	2.cc\	Sanc-	4e/	f	4cc\	.	4cc\	.	4ee\	.
!	!	!	!	!	!LO:DY:a:t=for	!	!	!	!	!	!	!	!	!	!	!	!LO:DY:a:t=f&colon;	!	!LO:DY:a	!	!
4C/	.	4e 4G/	.	4cc 4e/	f	.	.	.	.	.	.	.	.	4e/	.	4cc\	f	4cc\	f	4ee\	.
!	!	!	!LO:DY:a:t=f&colon;	!	!	!	!	!	!	!	!	!	!	!	!	!	!	!	!	!	!LO:DY:a:t=f_
4C/	.	4e 4G/	f	4cc 4e/	.	.	.	.	.	.	.	.	.	4e/	.	4cc\	.	4cc\	.	4ee\	f
=2	=2	=2	=2	=2	=2	=2	=2	=2	=2	=2	=2	=2	=2	=2	=2	=2	=2	=2	=2	=2	=2
4C/	.	8e/L	.	8cc\L	.	4c\	-tus	4G/	-tus	4e\	-tus	4cc\	-tus	4e/	.	4cc\	.	4cc\	.	4ee\	.
.	.	(16e/L	.	(16cc\L	.	.	.	.	.	.	.	.	.	.	.	.	.	.	.	.	.
.	.	16f/JJ)	.	16dd\JJ)	.	.	.	.	.	.	.	.	.	.	.	.	.	.	.	.	.
4r	.	8g/L|	.	8ee\L|	.	4r	.	4r	.	4r	.	4r	.	4r	.	4r	.	4r	.	4r	.
.	.	8g/|	.	8ee\|	.	.	.	.	.	.	.	.	.	.	.	.	.	.	.	.	.
4r	.	8g/|	.	8ee\|	.	4r	.	4r	.	4r	.	4r	.	4r	.	4r	.	4r	.	4r	.
.	.	8g/J|	.	8ee\J|	.	.	.	.	.	.	.	.	.	.	.	.	.	.	.	.	.
=3	=3	=3	=3	=3	=3	=3	=3	=3	=3	=3	=3	=3	=3	=3	=3	=3	=3	=3	=3	=3	=3
2.r	.	(8g/L	.	(8ee\L	.	2.r	.	2.r	.	2.r	.	2.r	.	2.r	.	2.r	.	2.r	.	2.r	.
.	.	8e/)	.	8cc\)	.	.	.	.	.	.	.	.	.	.	.	.	.	.	.	.	.
.	.	(8a/	.	(8ff\	.	.	.	.	.	.	.	.	.	.	.	.	.	.	.	.	.
.	.	8g/)	.	8ee\)	.	.	.	.	.	.	.	.	.	.	.	.	.	.	.	.	.
.	.	(8f/	.	(8dd\	.	.	.	.	.	.	.	.	.	.	.	.	.	.	.	.	.
.	.	8e/J)	.	8cc\J)	.	.	.	.	.	.	.	.	.	.	.	.	.	.	.	.	.
=4	=4	=4	=4	=4	=4	=4	=4	=4	=4	=4	=4	=4	=4	=4	=4	=4	=4	=4	=4	=4	=4
*	*	*	*	*	*	*	*	*	*	*	*	*	*ij	*	*	*	*	*	*	*	*
4G\	.	4d/	.	4b\	.	2.G\	Sanc-	2.G/	Sanc-	2.d\	Sanc-	2.b\	Sanc-	4g/	.	4dd\	.	4b\	.	4dd\	.
4G\	.	4b 4d/	.	4gg 4b 4d\	.	.	.	.	.	.	.	.	.	4g/	.	4dd\	.	4b\	.	4dd\	.
4G\	.	4b 4d/	.	4gg 4b 4d\	.	.	.	.	.	.	.	.	.	4g/	.	4dd\	.	4b\	.	4dd\	.
=5	=5	=5	=5	=5	=5	=5	=5	=5	=5	=5	=5	=5	=5	=5	=5	=5	=5	=5	=5	=5	=5
4G\	.	8bL 8d/	.	8ggL 8b\	.	4G\	-tus	4G/	-tus	4d\	-tus	4b\	-tus	4g/	.	4dd\	.	4b\	.	4dd\	.
*	*	*	*	*	*	*	*	*	*	*	*	*	*Xij	*	*	*	*	*	*	*	*
.	.	(16d/L	.	(16b\L	.	.	.	.	.	.	.	.	.	.	.	.	.	.	.	.	.
.	.	16e/JJ)	.	16cc\JJ)	.	.	.	.	.	.	.	.	.	.	.	.	.	.	.	.	.
4r	.	8f/L|	.	8dd\L|	.	4r	.	4r	.	4r	.	4r	.	4r	.	4r	.	4r	.	4r	.
.	.	8f/|	.	8dd\|	.	.	.	.	.	.	.	.	.	.	.	.	.	.	.	.	.
4r	.	8f/|	.	8dd\|	.	4r	.	4r	.	4r	.	4r	.	4r	.	4r	.	4r	.	4r	.
.	.	8f/J|	.	8dd\J|	.	.	.	.	.	.	.	.	.	.	.	.	.	.	.	.	.
=6	=6	=6	=6	=6	=6	=6	=6	=6	=6	=6	=6	=6	=6	=6	=6	=6	=6	=6	=6	=6	=6
2.r	.	(8f/L	.	(8dd\L	.	2.r	.	2.r	.	2.r	.	2.r	.	2.r	.	2.r	.	2.r	.	2.r	.
.	.	8d/)	.	8b\)	.	.	.	.	.	.	.	.	.	.	.	.	.	.	.	.	.
.	.	(8g/	.	(8ee\	.	.	.	.	.	.	.	.	.	.	.	.	.	.	.	.	.
.	.	8f/J)	.	8dd\J)	.	.	.	.	.	.	.	.	.	.	.	.	.	.	.	.	.
!	!	!LO:LB:g=original	!	!LO:LB:g=original	!	!	!	!	!	!	!	!	!	!	!	!	!	!	!	!	!
.	.	(8e/L	.	(8cc\L	.	.	.	.	.	.	.	.	.	.	.	.	.	.	.	.	.
.	.	8d/J)	.	8b\J)	.	.	.	.	.	.	.	.	.	.	.	.	.	.	.	.	.
=7	=7	=7	=7	=7	=7	=7	=7	=7	=7	=7	=7	=7	=7	=7	=7	=7	=7	=7	=7	=7	=7
*	*	*	*	*	*	*	*ij	*2\right	*ij	*	*ij	*	*ij	*	*	*	*	*	*	*	*
4c\	.	8e/L|	.	8cc\L	.	2c\	Sanc-	2c\	Sanc-	2g\	Sanc-	2ee\	Sanc-	4e/	.	4cc\	.	4cc\	.	4ee\	.
.	.	(16e/L	.	(16cc\L	.	.	.	.	.	.	.	.	.	.	.	.	.	.	.	.	.
.	.	16f/JJ)	.	16dd\JJ)	.	.	.	.	.	.	.	.	.	.	.	.	.	.	.	.	.
4c\	.	8g/L|	.	8ee\L|	.	.	.	.	.	.	.	.	.	4e/	.	4cc\	.	4ee\	.	4gg\	.
.	.	8g/|	.	8ee\|	.	.	.	.	.	.	.	.	.	.	.	.	.	.	.	.	.
4c\	.	8g/|	.	8ee\|	.	4c\	-tus	4c\	-tus	4g\	-tus	4ee\	-tus	4e/	.	4cc\	.	4ee\	.	4gg\	.
*	*	*	*	*	*	*	*Xij	*	*Xij	*	*Xij	*	*Xij	*	*	*	*	*	*	*	*
.	.	8g/J|	.	8ee\J|	.	.	.	.	.	.	.	.	.	.	.	.	.	.	.	.	.
!LO:LB:g=original	!	!	!	!	!	!LO:LB:g=original	!	!LO:LB:g=original	!	!LO:LB:g=original	!	!	!LO:LB:g=original	!LO:LB:g=original	!	!LO:LB:g=original	!	!LO:LB:g=original	!	!LO:LB:g=original	!
=8	=8	=8	=8	=8	=8	=8	=8	=8	=8	=8	=8	=8	=8	=8	=8	=8	=8	=8	=8	=8	=8
4B\	6_	8g/L|	.	8dd\L|	.	4.B\	Do-	4.d\	Do-	4.g\	Do-	4.dd\	Do-	4g/	.	4dd\	.	4dd\	.	4gg\	.
.	.	8g/J|	.	(16ee\L	.	.	.	.	.	.	.	.	.	.	.	.	.	.	.	.	.
.	.	.	.	16ff#X\JJ)	.	.	.	.	.	.	.	.	.	.	.	.	.	.	.	.	.
4B\	.	8dd\L	.	8gg\L|	.	.	.	.	.	.	.	.	.	4g/	.	4dd\	.	4dd\	.	4gg\	.
.	.	8dd\	.	8gg\|	.	8B\	-mi-	8d\	-mi-	8g\	-mi-	8dd\	-mi-	.	.	.	.	.	.	.	.
4B\	.	8dd\	.	8gg\|	.	4B\	-nus	4d\	-nus	4g\	-nus	4dd\	-nus	4g/	.	4dd\	.	4dd\	.	4gg\	.
.	.	8dd\J	.	8gg\J|	.	.	.	.	.	.	.	.	.	.	.	.	.	.	.	.	.
=9	=9	=9	=9	=9	=9	=9	=9	=9	=9	=9	=9	=9	=9	=9	=9	=9	=9	=9	=9	=9	=9
*	*	*tremolo	*	*	*	*	*	*	*	*	*	*	*	*	*	*	*	*	*	*	*
*2\right	*	*2\right	*	*	*	*	*	*	*	*	*	*	*	*	*	*	*	*	*	*	*
2.A\	7	8cc\L	.	8gg\L	.	2A\	De-	2e\	De-	2g\	De-	2cc\	De-	4cc\	.	4ee\	.	4cc\	.	4gg\	.
.	.	8cc\	.	8gg\	.	.	.	.	.	.	.	.	.	.	.	.	.	.	.	.	.
.	.	8cc\	.	8gg\	.	.	.	.	.	.	.	.	.	4cc\	.	4ee\	.	4cc\	.	4gg\	.
.	.	8cc\	.	8gg\	.	.	.	.	.	.	.	.	.	.	.	.	.	.	.	.	.
.	6	8cc\	.	8ff#X\	.	4A\	-us	4d\	-us	4f#X\	-us	4cc\	-us	4dd\	.	4dd\	.	4cc\	.	4ff#X\	.
.	.	8cc\J	.	8ff#\J	.	.	.	.	.	.	.	.	.	.	.	.	.	.	.	.	.
*	*	*Xtremolo	*	*	*	*	*	*	*	*	*	*	*	*	*	*	*	*	*	*	*
=10	=10	=10	=10	=10	=10	=10	=10	=10	=10	=10	=10	=10	=10	=10	=10	=10	=10	=10	=10	=10	=10
4G\	.	4b\	.	4gg\	.	8G\	Sa-	8d\	Sa-	8g\	Sa-	8b\	Sa-	4g/	.	4dd\	.	4b\	.	4gg\	.
.	.	.	.	.	.	8G\	-ba-	8d\	-ba-	8g\	-ba-	8b\	-ba-	.	.	.	.	.	.	.	.
4G\	.	4b\	.	4gg\	.	4G\	-oth	4d\	-oth	4g\	-oth	4b\	-oth	4g/	.	4dd\	.	4b\	.	4gg\	.
!	!	!	!	!	!	!	!	!	!	!	!	!	!	!	!	!	!	!LO:TX:b:t=Verte Pleni	!	!LO:TX:b:t=Verte Pleni	!
4r	.	4r	.	4r	.	4r	.	4r	.	4r	.	4r	.	4r	.	4r	.	4r	.	4r	.
!LO:LB:g=original	!	!LO:LB:g=original	!	!LO:LB:g=original	!	!LO:LB:g=original	!	!LO:LB:g=original	!	!LO:LB:g=original	!	!LO:LB:g=original	!	!LO:LB:g=original	!	!LO:LB:g=original	!	!LO:PB:g=original	!	!LO:PB:g=original	!
=11||	=11||	=11||	=11||	=11||	=11||	=11||	=11||	=11||	=11||	=11||	=11||	=11||	=11||	=11||	=11||	=11||	=11||	=11||	=11||	=11||	=11||
*clefF4	*	*clefG2	*	*clefG2	*	*clefF4	*	*clefC4	*	*clefC3	*	*clefC1	*	*clefG2	*	*clefG2	*	*clefG2	*	*clefG2	*
*M3/4	*	*M3/4	*	*M3/4	*	*M3/4	*	*M3/4	*	*M3/4	*	*M3/4	*	*M3/4	*	*M3/4	*	*M3/4	*	*M3/4	*
*	*	*	*	*	*	*	*	*	*	*	*	*	*	*	*	*	*	*2\right	*	*2\right	*
!LO:TX:a:t=tutti	!	!	!	!	!	!	!	!	!	!	!	!	!	!	!	!	!	!	!	!	!
!LO:TX:a:rj:t=allo	!	!LO:TX:a:t=allo	!	!	!LO:DY:a:t=for	!LO:TX:a:t=allo&colon;	!	!LO:TX:a:t=allo	!	!LO:TX:a:t=allo&colon;	!	!LO:TX:a:t=allo	!	!LO:TX:a:t=allo	!	!LO:TX:a:t=allo&colon;	!	!LO:TX:a:t=Allo&colon;	!	!LO:TX:a:t=Allo	!
4C/	.	16e/LL	.	16cc\LL	f	4C/	ple-	4G/	ple-	4e\	ple-	4cc\	ple-	4e/	.	4cc\	.	2cc\	.	2ee\	.
.	.	(16d/	.	(16b\	.	.	.	.	.	.	.	.	.	.	.	.	.	.	.	.	.
!	!	!	!LO:DY:a:t=for	!	!	!	!	!	!	!	!	!	!	!	!	!	!	!	!	!	!
.	.	16e/	f	16cc\	.	.	.	.	.	.	.	.	.	.	.	.	.	.	.	.	.
!	!	!	!	!LO:TX:a:t=allo&colon;	!	!	!	!	!	!	!	!	!	!	!	!	!	!	!	!	!
.	.	16f/JJ)	.	16dd\JJ)	.	.	.	.	.	.	.	.	.	.	.	.	.	.	.	.	.
!	!	!	!	!	!	!	!	!	!	!	!	!	!	!	!LO:DY:a:t=f&colon;	!	!LO:DY:a:t=f&colon;	!	!	!	!
4G\	4	8g/L|	.	8ee\L	.	4G\	-ni	4G/	-ni	4e\	-ni	4cc\	-ni	4cc\	f	4ee\	f	.	.	.	.
.	.	8e/|	.	8cc\	.	.	.	.	.	.	.	.	.	.	.	.	.	.	.	.	.
!	!	!	!	!	!	!	!	!	!	!	!	!	!	!	!	!	!	!	!LO:DY:a:t=f&colon;	!	!LO:DY:a:t=f&colon;
4GG/	3	8f/|	.	8dd\	.	4G\	Sunt	4G/	Sunt	4d\	Sunt	4b\	Sunt	4g/	.	4dd\	.	4b\	f	4dd\	f
.	.	8d/J|	.	8b\J	.	.	.	.	.	.	.	.	.	.	.	.	.	.	.	.	.
=12	=12	=12	=12	=12	=12	=12	=12	=12	=12	=12	=12	=12	=12	=12	=12	=12	=12	=12	=12	=12	=12
!LO:TX:a:t=P:problem=mixed beam	!	!LO:TX:a:t=P:problem=mixed beam	!	!	!	!	!	!	!	!	!	!	!	!	!	!	!	!	!	!	!
8C/L	.	8e/L	.	(8cc\L	.	4c\	Cae-	4G/	Cae-	4e\	Cae-	4cc\	cae-	4e/	.	4cc\	.	4cc\	.	4ee\	.
(16e\L	.	(16ee\L	.	16ee\L	.	.	.	.	.	.	.	.	.	.	.	.	.	.	.	.	.
16d\JJ)	.	16dd\JJ)	.	16dd\JJ)	.	.	.	.	.	.	.	.	.	.	.	.	.	.	.	.	.
8c\L|	.	8cc/L|	.	8cc/L|	.	4C/	-li	4G/	-li	4e\	-li	4cc\	-li	4e/	.	4cc\	.	4cc\	.	4ee\	.
8G\|	.	8g/|	.	8g/|	.	.	.	.	.	.	.	.	.	.	.	.	.	.	.	.	.
8E\|	.	8e/|	.	8e/|	.	4r	.	4r	.	4r	.	4r	.	4r	.	4r	.	4r	.	4r	.
8G\J|	.	8g/J|	.	8g/J|	.	.	.	.	.	.	.	.	.	.	.	.	.	.	.	.	.
=13	=13	=13	=13	=13	=13	=13	=13	=13	=13	=13	=13	=13	=13	=13	=13	=13	=13	=13	=13	=13	=13
*	*	*	*	*	*	*	*ij	*	*ij	*	*ij	*	*ij	*	*	*	*	*	*	*	*
!	!	!	!	!LO:TX:a:t=P:problem=mixed beam	!	!	!	!	!	!	!	!	!	!	!	!	!	!	!	!	!
4C/	.	8c/L|	.	8c/L	.	4C/	ple-	4G/	ple-	4e\	ple-	4cc\	ple-	4e/	.	4cc\	.	2cc\	.	2ee\	.
.	.	(16e/L	.	(16cc\L	.	.	.	.	.	.	.	.	.	.	.	.	.	.	.	.	.
.	.	16f/JJ)	.	16dd\JJ)	.	.	.	.	.	.	.	.	.	.	.	.	.	.	.	.	.
4G\	4	8g/L|	.	8ee\L|	.	4G\	-ni	4G/	-ni	4e\	-ni	4cc\	-ni	4cc\	.	4ee\	.	.	.	.	.
.	.	8e/|	.	8cc\|	.	.	.	.	.	.	.	.	.	.	.	.	.	.	.	.	.
4GG/	3	8f/|	.	8dd\|	.	4G\	Sunt	4G/	Sunt	4d\	Sunt	4b\	Sunt	4g/	.	4dd\	.	4b\	.	4dd\	.
.	.	8d/J|	.	8b\J|	.	.	.	.	.	.	.	.	.	.	.	.	.	.	.	.	.
=14	=14	=14	=14	=14	=14	=14	=14	=14	=14	=14	=14	=14	=14	=14	=14	=14	=14	=14	=14	=14	=14
!LO:TX:a:t=P:problem=mixed beam	!	!LO:TX:a:t=P:problem=mixed beam	!	!	!	!	!	!	!	!	!	!	!	!	!	!	!	!	!	!	!
8C/L	.	8e/L	.	8cc\L	.	4c\	Cae-	4G/	Cae-	4e\	Cae-	4cc\	cae-	4e/	.	4cc\	.	4cc\	.	4ee\	.
(16e\L	.	16ee\L	.	(16ee\L	.	.	.	.	.	.	.	.	.	.	.	.	.	.	.	.	.
16d\JJ)	.	16dd\JJ	.	16dd\JJ)	.	.	.	.	.	.	.	.	.	.	.	.	.	.	.	.	.
8c\L|	.	8cc/L	.	8cc/L|	.	4C/	-li	4G/	-li	4e\	-li	4cc\	-li	4e/	.	4cc\	.	4cc\	.	4ee\	.
*	*	*	*	*	*	*	*	*	*	*	*	*	*Xij	*	*	*	*	*	*	*	*
8G\|	.	8g/	.	8g/|	.	.	.	.	.	.	.	.	.	.	.	.	.	.	.	.	.
8E\|	.	8e/	.	8e/|	.	4r	.	4r	.	4r	.	4r	.	4r	.	4r	.	4r	.	4r	.
8G\J|	.	8g/J	.	8g/J|	.	.	.	.	.	.	.	.	.	.	.	.	.	.	.	.	.
=15	=15	=15	=15	=15	=15	=15	=15	=15	=15	=15	=15	=15	=15	=15	=15	=15	=15	=15	=15	=15	=15
*	*	*	*	*	*	*	*	*	*	*	*	*	*	*	*	*2\right	*	*	*	*	*
!	!	!	!	!LO:TX:a:t=P:problem=mixed beam	!	!	!	!	!	!	!	!	!	!	!	!	!	!	!	!	!
8C/L	.	16e/LL	.	8c/L	.	4c\	ple-	4G/	ple-	4e\	ple-	4cc\	ple-	2.c/	.	2.cc\	.	2cc\	.	2ee\	.
.	.	16g/	.	.	.	.	.	.	.	.	.	.	.	.	.	.	.	.	.	.	.
8C/	.	16e/	.	(16cc\L	.	.	.	.	.	.	.	.	.	.	.	.	.	.	.	.	.
.	.	16g/JJ	.	16dd\JJ)	.	.	.	.	.	.	.	.	.	.	.	.	.	.	.	.	.
!	!	!LO:LB:g=original	!	!	!	!	!	!	!	!	!	!	!	!	!	!	!	!	!	!	!
8C/	.	16e/LL	.	8ee\L	.	4c\	-ni	4G/	-ni	4e\	-ni	4cc\	-ni	.	.	.	.	.	.	.	.
.	.	16g/	.	.	.	.	.	.	.	.	.	.	.	.	.	.	.	.	.	.	.
8C/	.	16e/	.	8cc\	.	.	.	.	.	.	.	.	.	.	.	.	.	.	.	.	.
.	.	16g/JJ	.	.	.	.	.	.	.	.	.	.	.	.	.	.	.	.	.	.	.
8C/	.	16e/LL	.	8gg\	.	4c\	Sunt	4c\	Sunt	4g\	Sunt	4ee\	ſunt	.	.	.	.	4ee\	.	4gg\	.
.	.	16g/	.	.	.	.	.	.	.	.	.	.	.	.	.	.	.	.	.	.	.
8C/J	.	16e/	.	8ee\J	.	.	.	.	.	.	.	.	.	.	.	.	.	.	.	.	.
.	.	16g/JJ	.	.	.	.	.	.	.	.	.	.	.	.	.	.	.	.	.	.	.
!LO:LB:g=original	!	!	!	!LO:LB:g=original	!	!	!	!	!	!	!	!LO:LB:g=original	!	!	!	!	!	!	!	!	!
=16	=16	=16	=16	=16	=16	=16	=16	=16	=16	=16	=16	=16	=16	=16	=16	=16	=16	=16	=16	=16	=16
8C/L	6_ 4_	16f/LL	.	16ff\LL	.	2c\	Cae-	2c\	Cae-	2a\	Cae-	2ff\	Cae-	2.c/	.	2.cc\	.	2ff\	.	2aa\	.
.	.	16a/	.	16ee\	.	.	.	.	.	.	.	.	.	.	.	.	.	.	.	.	.
8C/	.	16f/	.	16ff\	.	.	.	.	.	.	.	.	.	.	.	.	.	.	.	.	.
.	.	16a/JJ	.	16gg\JJ	.	.	.	.	.	.	.	.	.	.	.	.	.	.	.	.	.
8C/	.	16f/LL	.	(8.aa\L	.	.	.	.	.	.	.	.	.	.	.	.	.	.	.	.	.
.	.	16a/	.	.	.	.	.	.	.	.	.	.	.	.	.	.	.	.	.	.	.
8C/	.	16f/	.	.	.	.	.	.	.	.	.	.	.	.	.	.	.	.	.	.	.
.	.	16a/JJ	.	16ff\Jk)	.	.	.	.	.	.	.	.	.	.	.	.	.	.	.	.	.
8C/	5 3	16e/LL	.	16ee\LL	.	4C/	-li	4c\	-li	4g\	-li	4ee\	-li	.	.	.	.	4ee\	.	4gg\	.
*	*	*	*	*	*	*	*Xij	*	*Xij	*	*Xij	*	*	*	*	*	*	*	*	*	*
.	.	16g/	.	16ff\	.	.	.	.	.	.	.	.	.	.	.	.	.	.	.	.	.
8C/J	.	16e/	.	16gg\	.	.	.	.	.	.	.	.	.	.	.	.	.	.	.	.	.
.	.	16g/JJ	.	16ee\JJ	.	.	.	.	.	.	.	.	.	.	.	.	.	.	.	.	.
!	!	!	!	!	!	!	!	!	!	!LO:LB:g=original	!	!	!	!	!	!	!	!	!	!	!
=17	=17	=17	=17	=17	=17	=17	=17	=17	=17	=17	=17	=17	=17	=17	=17	=17	=17	=17	=17	=17	=17
*	*	*	*	*	*	*	*	*	*	*	*	*	*ij	*	*	*	*	*	*	*	*
8F\L	6_	16a/LL	.	16ee\LL	.	4F\	Cae-	4A\	Cae-	4f\	Cae-	4dd\	Cae-	4r	.	4r	.	2dd\	.	2ff\	.
.	.	16a/	.	16dd\	.	.	.	.	.	.	.	.	.	.	.	.	.	.	.	.	.
8F\	.	16a/	.	16cc\	.	.	.	.	.	.	.	.	.	.	.	.	.	.	.	.	.
.	.	16a/JJ	.	16dd\JJ	.	.	.	.	.	.	.	.	.	.	.	.	.	.	.	.	.
*	*	*tremolo	*	*	*	*	*	*	*	*	*	*	*	*	*	*	*	*	*	*	*
8F\	.	16a/LL	.	8ff\L	.	4F\	-li	4A\	-li	4f\	-li	4dd\	-li	4dd\	.	4ff\	.	.	.	.	.
*	*	*	*	*	*	*	*	*	*	*	*	*	*Xij	*	*	*	*	*	*	*	*
.	.	16a/	.	.	.	.	.	.	.	.	.	.	.	.	.	.	.	.	.	.	.
8F\	.	16a/	.	8dd\	.	.	.	.	.	.	.	.	.	.	.	.	.	.	.	.	.
.	.	16a/JJ	.	.	.	.	.	.	.	.	.	.	.	.	.	.	.	.	.	.	.
!	!	!	!	!	!	!LO:LB:g=original	!	!LO:LB:g=original	!	!	!	!	!	!	!	!	!	!	!	!	!
8F#X\	5	16a/LL	.	8cc\	.	4F#X\	&	4A\	&	4e\	&	4cc\	&	4cc\	.	4ee\	.	4cc\	.	4ee\	.
.	.	16a/	.	.	.	.	.	.	.	.	.	.	.	.	.	.	.	.	.	.	.
8F#\J	.	16a/	.	8ee\J	.	.	.	.	.	.	.	.	.	.	.	.	.	.	.	.	.
.	.	16a/JJ	.	.	.	.	.	.	.	.	.	.	.	.	.	.	.	.	.	.	.
*	*	*Xtremolo	*	*	*	*	*	*	*	*	*	*	*	*	*	*	*	*	*	*	*
=18	=18	=18	=18	=18	=18	=18	=18	=18	=18	=18	=18	=18	=18	=18	=18	=18	=18	=18	=18	=18	=18
4G\	4	8e/L	.	8cc\L	.	4G\	ter-	4G/	ter-	4e\	ter-	4cc\	ter-	4cc\	.	4ee\	.	4cc\	.	4ee\	.
.	.	16d/L	.	16b\L	.	.	.	.	.	.	.	.	.	.	.	.	.	.	.	.	.
.	.	16e/JJ	.	16cc\JJ	.	.	.	.	.	.	.	.	.	.	.	.	.	.	.	.	.
4GG/	3	16d/LL	.	16b/LL	.	4G\	-ra	4G/	-ra	4d\	-ra	4b\	-ra	4g/	.	4dd\	.	4b\	.	4dd\	.
.	.	16B/	.	16g/	.	.	.	.	.	.	.	.	.	.	.	.	.	.	.	.	.
.	.	16c/	.	16a/	.	.	.	.	.	.	.	.	.	.	.	.	.	.	.	.	.
.	.	16d/JJ	.	16b/JJ	.	.	.	.	.	.	.	.	.	.	.	.	.	.	.	.	.
4r	.	16e/LL	.	16cc\LL	.	4r	.	4r	.	4r	.	4r	.	4r	.	4r	.	4r	.	4r	.
.	.	16f#X/	.	16dd\	.	.	.	.	.	.	.	.	.	.	.	.	.	.	.	.	.
.	.	16g/	.	16ee\	.	.	.	.	.	.	.	.	.	.	.	.	.	.	.	.	.
.	.	16a/JJ	.	16ff#X\JJ	.	.	.	.	.	.	.	.	.	.	.	.	.	.	.	.	.
!	!	!LO:LB:g=original	!	!	!	!	!	!	!	!	!	!	!	!LO:LB:g=original	!	!LO:LB:g=original	!	!LO:LB:g=original	!	!LO:LB:g=original	!
=19	=19	=19	=19	=19	=19	=19	=19	=19	=19	=19	=19	=19	=19	=19	=19	=19	=19	=19	=19	=19	=19
8B\L	6_ 5_	16dLL 16G/	.	(8.gg\L	.	4.B\	glo-	4.d\	glo-	4.g\	glo-	4.dd\	glo-	2.g/	.	2.dd\	.	2.dd\	.	2.gg\	.
.	.	16d 16G/	.	.	.	.	.	.	.	.	.	.	.	.	.	.	.	.	.	.	.
8B\	.	16d 16G/	.	.	.	.	.	.	.	.	.	.	.	.	.	.	.	.	.	.	.
.	.	16dJJ 16G/	.	16ffn\Jk)	.	.	.	.	.	.	.	.	.	.	.	.	.	.	.	.	.
*	*	*tremolo	*	*	*	*	*	*	*	*	*	*	*	*	*	*	*	*	*	*	*
8B\	.	16d 16G/LL	.	8dd\L|	.	.	.	.	.	.	.	.	.	.	.	.	.	.	.	.	.
.	.	16d 16G/	.	.	.	.	.	.	.	.	.	.	.	.	.	.	.	.	.	.	.
8B\	.	16d 16G/	.	8dd\J|	.	8B\	-ri-	8d\	-ri-	8g\	-ri-	8dd\	-ri-	.	.	.	.	.	.	.	.
.	.	16d 16G/JJ	.	.	.	.	.	.	.	.	.	.	.	.	.	.	.	.	.	.	.
8B\	.	16d 16G/LL	.	(16ee\LL	.	4B\	-a	4d\	-a	4g\	-a	4dd\	-a	.	.	.	.	.	.	.	.
.	.	16d 16G/	.	16dd\)	.	.	.	.	.	.	.	.	.	.	.	.	.	.	.	.	.
8B\J	.	16d 16G/	.	(16cc\	.	.	.	.	.	.	.	.	.	.	.	.	.	.	.	.	.
.	X X	16d 16G/JJ	.	16dd\JJ)	.	.	.	.	.	.	.	.	.	.	.	.	.	.	.	.	.
!	!	!	!	!LO:LB:g=original	!	!	!	!	!	!	!	!	!	!	!	!	!	!	!	!	!
=20	=20	=20	=20	=20	=20	=20	=20	=20	=20	=20	=20	=20	=20	=20	=20	=20	=20	=20	=20	=20	=20
*tremolo	*	*	*	*	*	*	*	*	*	*	*	*	*	*2\right	*	*	*	*	*	*	*
8c\L	.	16e 16G/LL	.	(8.cc\L	.	2c\	tu-	2c\	tu-	2g\	tu-	2ee\	tu-	2.cc\	.	2.ee\	.	2.ee\	.	2.gg\	.
.	.	16e 16G/	.	.	.	.	.	.	.	.	.	.	.	.	.	.	.	.	.	.	.
8c\	.	16e 16G/	.	.	.	.	.	.	.	.	.	.	.	.	.	.	.	.	.	.	.
.	.	16e 16G/JJ	.	16ee\Jk)	.	.	.	.	.	.	.	.	.	.	.	.	.	.	.	.	.
8c\	.	16e 16G/LL	.	8gg\L	.	.	.	.	.	.	.	.	.	.	.	.	.	.	.	.	.
.	.	16e 16G/	.	.	.	.	.	.	.	.	.	.	.	.	.	.	.	.	.	.	.
8c\	.	16e 16G/	.	16aa\L	.	.	.	.	.	.	.	.	.	.	.	.	.	.	.	.	.
.	.	16e 16G/JJ	.	16gg\JJ	.	.	.	.	.	.	.	.	.	.	.	.	.	.	.	.	.
8c\	.	16e 16G/LL	.	16ff\LL	.	4c\	-a	4c\	-a	4g\	-a	4ee\	-a	.	.	.	.	.	.	.	.
.	.	16e 16G/	.	16ee\	.	.	.	.	.	.	.	.	.	.	.	.	.	.	.	.	.
8c\J	.	16e 16G/	.	16aa\	.	.	.	.	.	.	.	.	.	.	.	.	.	.	.	.	.
.	.	16e 16G/JJ	.	16gg\JJ	.	.	.	.	.	.	.	.	.	.	.	.	.	.	.	.	.
=21	=21	=21	=21	=21	=21	=21	=21	=21	=21	=21	=21	=21	=21	=21	=21	=21	=21	=21	=21	=21	=21
*	*	*	*	*	*	*	*ij	*	*ij	*	*ij	*	*	*	*	*	*	*	*	*	*
8B\L	6 5	16d 16G/LL	.	(8.gg\L	.	4.B\	glo-	4.d\	glo-	4.g\	glo-	4.dd\	glo-	2.g/	.	2.dd\	.	2.dd\	.	2.gg\	.
.	.	16d 16G/	.	.	.	.	.	.	.	.	.	.	.	.	.	.	.	.	.	.	.
8B\	.	16d 16G/	.	.	.	.	.	.	.	.	.	.	.	.	.	.	.	.	.	.	.
.	.	16d 16G/JJ	.	16ff\Jk)	.	.	.	.	.	.	.	.	.	.	.	.	.	.	.	.	.
8B\	.	16d 16G/LL	.	8dd\L|	.	.	.	.	.	.	.	.	.	.	.	.	.	.	.	.	.
.	.	16d 16G/	.	.	.	.	.	.	.	.	.	.	.	.	.	.	.	.	.	.	.
8B\	.	16d 16G/	.	8dd\J|	.	8B\	-ri-	8d\	-ri-	8g\	-ri-	8dd\	-ri-	.	.	.	.	.	.	.	.
.	.	16d 16G/JJ	.	.	.	.	.	.	.	.	.	.	.	.	.	.	.	.	.	.	.
8B\	.	16d 16G/LL	.	(16ee\LL	.	4B\	-a	4d\	-a	4g\	-a	4dd\	-a	.	.	.	.	.	.	.	.
.	.	16d 16G/	.	16dd\)	.	.	.	.	.	.	.	.	.	.	.	.	.	.	.	.	.
8B\J	.	16d 16G/	.	(16cc\	.	.	.	.	.	.	.	.	.	.	.	.	.	.	.	.	.
.	.	16d 16G/JJ	.	16dd\JJ)	.	.	.	.	.	.	.	.	.	.	.	.	.	.	.	.	.
!	!	!	!	!	!	!	!	!	!	!	!	!LO:LB:g=original	!	!	!	!	!	!	!	!	!
=22	=22	=22	=22	=22	=22	=22	=22	=22	=22	=22	=22	=22	=22	=22	=22	=22	=22	=22	=22	=22	=22
8c\L	.	16e 16G/LL	.	(8.cc\L	.	2c\	tu-	2c\	tu-	2g\	tu-	2ee\	tu-	2.cc\	.	2.ee\	.	2.ee\	.	2.gg\	.
.	.	16e 16G/	.	.	.	.	.	.	.	.	.	.	.	.	.	.	.	.	.	.	.
8c\	.	16e 16G/	.	.	.	.	.	.	.	.	.	.	.	.	.	.	.	.	.	.	.
.	.	16e 16G/JJ	.	16ee\Jk)	.	.	.	.	.	.	.	.	.	.	.	.	.	.	.	.	.
8c\	.	16e 16G/LL	.	8gg\L	.	.	.	.	.	.	.	.	.	.	.	.	.	.	.	.	.
.	.	16e 16G/	.	.	.	.	.	.	.	.	.	.	.	.	.	.	.	.	.	.	.
8c\	.	16e 16G/	.	16aa\L	.	.	.	.	.	.	.	.	.	.	.	.	.	.	.	.	.
.	.	16e 16G/JJ	.	16gg\JJ	.	.	.	.	.	.	.	.	.	.	.	.	.	.	.	.	.
8c\	.	16e 16G/LL	.	16ff\LL	.	4c\	-a	4c\	-a	4g\	-a	4ee\	-a	.	.	.	.	.	.	.	.
*	*	*	*	*	*	*	*Xij	*	*Xij	*	*Xij	*	*	*	*	*	*	*	*	*	*
.	.	16e 16G/	.	16ee\	.	.	.	.	.	.	.	.	.	.	.	.	.	.	.	.	.
8c\J	.	16e 16G/	.	16dd\	.	.	.	.	.	.	.	.	.	.	.	.	.	.	.	.	.
.	.	16e 16G/JJ	.	16cc\JJ	.	.	.	.	.	.	.	.	.	.	.	.	.	.	.	.	.
*Xtremolo	*	*	*	*	*	*	*	*	*	*	*	*	*	*	*	*	*	*	*	*	*
!LO:LB:g=original	!	!	!	!	!	!	!	!	!	!LO:LB:g=original	!	!	!	!	!	!	!	!	!	!	!
=23	=23	=23	=23	=23	=23	=23	=23	=23	=23	=23	=23	=23	=23	=23	=23	=23	=23	=23	=23	=23	=23
8F\L	6_	16a/LL	.	16ee\LL	.	4.F\	glo-	4.A/	glo-	4.f\	glo-	4.dd\	glo-	2dd\	.	2ff\	.	2dd\	.	4aa\	.
.	.	16a/	.	16dd\	.	.	.	.	.	.	.	.	.	.	.	.	.	.	.	.	.
8F\	.	16a/	.	16cc\	.	.	.	.	.	.	.	.	.	.	.	.	.	.	.	.	.
.	.	16a/JJ	.	16dd\JJ	.	.	.	.	.	.	.	.	.	.	.	.	.	.	.	.	.
8F\	.	16a/LL	.	(8.ff\L	.	.	.	.	.	.	.	.	.	.	.	.	.	.	.	4ff\	.
.	X	16a/	.	.	.	.	.	.	.	.	.	.	.	.	.	.	.	.	.	.	.
8F\	.	16a/	.	.	.	8F\	-ri-	8A/	-ri-	8f\	-ri-	8dd\	-ri-	.	.	.	.	.	.	.	.
.	.	16a/JJ	.	16dd\Jk)	.	.	.	.	.	.	.	.	.	.	.	.	.	.	.	.	.
.	.	.	.	8qcc/	.	.	.	.	.	.	.	.	.	.	.	.	.	.	.	.	.
8G\	.	16d/LL	.	8b\L	.	4G\	-a	4G/	-a	4d\	-a	4b\	-a	4g/	.	4dd\	.	4b\	.	4dd\	.
.	.	16d/	.	.	.	.	.	.	.	.	.	.	.	.	.	.	.	.	.	.	.
8G\J	.	16d/	.	16a\L	.	.	.	.	.	.	.	.	.	.	.	.	.	.	.	.	.
.	.	16d/JJ	.	16b\JJ	.	.	.	.	.	.	.	.	.	.	.	.	.	.	.	.	.
!	!	!	!	!LO:LB:g=original	!	!LO:LB:g=original	!	!LO:LB:g=original	!	!	!	!	!	!	!	!	!	!	!	!	!
=24	=24	=24	=24	=24	=24	=24	=24	=24	=24	=24	=24	=24	=24	=24	=24	=24	=24	=24	=24	=24	=24
*	*	*	*	*	*	*	*	*	*	*	*ij	*	*ij	*	*	*	*	*	*	*	*
8A\L	.	16e/LL	.	16dd\LL	.	4.A\	glo-	4.A/	glo-	4.e\	glo-	4.cc\	glo-	2e/	.	2cc\	.	2cc\	.	2ee\	.
.	.	16e/	.	16cc\	.	.	.	.	.	.	.	.	.	.	.	.	.	.	.	.	.
8A\	.	16e/	.	16b\	.	.	.	.	.	.	.	.	.	.	.	.	.	.	.	.	.
.	.	16e/JJ	.	16cc\JJ	.	.	.	.	.	.	.	.	.	.	.	.	.	.	.	.	.
8A\	.	16e/LL	.	(8.ee\L	.	.	.	.	.	.	.	.	.	.	.	.	.	.	.	.	.
.	.	16e/	.	.	.	.	.	.	.	.	.	.	.	.	.	.	.	.	.	.	.
8A\	.	16e/	.	.	.	8A\	-ri-	8A/	-ri-	8e\	-ri-	8cc\	-ri-	.	.	.	.	.	.	.	.
.	.	16e/JJ	.	16cc\Jk)	.	.	.	.	.	.	.	.	.	.	.	.	.	.	.	.	.
8E\	6	16g/LL	.	16g\LL	.	4E\	-a	4G/	-a	4g\	-a	4ee\	-a	4cc\	.	4ee\	.	4ee\	.	4gg\	.
*	*	*	*	*	*	*	*	*	*	*	*Xij	*	*Xij	*	*	*	*	*	*	*	*
.	.	16g/	.	16cc\	.	.	.	.	.	.	.	.	.	.	.	.	.	.	.	.	.
8E\J	.	16g/	.	16ee\	.	.	.	.	.	.	.	.	.	.	.	.	.	.	.	.	.
.	.	16g/JJ	.	16gg\JJ	.	.	.	.	.	.	.	.	.	.	.	.	.	.	.	.	.
*	*	*Xtremolo	*	*	*	*	*	*	*	*	*	*	*	*	*	*	*	*	*	*	*
!	!	!LO:LB:g=original	!	!	!	!	!	!	!	!	!	!	!	!	!	!	!	!	!	!	!
=25	=25	=25	=25	=25	=25	=25	=25	=25	=25	=25	=25	=25	=25	=25	=25	=25	=25	=25	=25	=25	=25
!LO:TX:a:t=P:problem=mixed beam	!	!	!	!	!	!	!	!	!	!	!	!	!	!	!	!	!	!	!	!	!
8F\L	6	8a/L	.	8ff\L	.	4F\	tu-	4A/	tu-	(4f\	tu-	4dd\	tu-	4dd\	.	4ff\	.	4dd\	.	4ff\	.
8F\	.	8f/	.	16ee\L	.	.	.	.	.	.	.	.	.	.	.	.	.	.	.	.	.
.	.	.	.	16dd\JJ	.	.	.	.	.	.	.	.	.	.	.	.	.	.	.	.	.
8G\	4	8e/	.	8cc/L	.	4G\	.	2G/	.	4e\	.	4cc\	.	4cc\	.	4ee\	.	4cc\	.	4ee\	.
8G\	.	8c/	.	8e/	.	.	.	.	.	.	.	.	.	.	.	.	.	.	.	.	.
8GG/	3	8B/	.	8d/	.	4GG/	.	.	.	4d\)	.	4b\	.	4g/	.	4dd\	.	4b\	.	4dd\	.
8GG/J	.	8d/J	.	8b/J	.	.	.	.	.	.	.	.	.	.	.	.	.	.	.	.	.
=26	=26	=26	=26	=26	=26	=26	=26	=26	=26	=26	=26	=26	=26	=26	=26	=26	=26	=26	=26	=26	=26
4C/	.	16e/LL	.	16cc/LL	.	4C/	-a	4G/	-a	4e\	-a	4cc\	-a	4e/	.	4cc\	.	4cc\	.	4ee\	.
.	.	16c/	.	16e/	.	.	.	.	.	.	.	.	.	.	.	.	.	.	.	.	.
.	.	16d/	.	16f/	.	.	.	.	.	.	.	.	.	.	.	.	.	.	.	.	.
.	.	16e/JJ	.	16g/JJ	.	.	.	.	.	.	.	.	.	.	.	.	.	.	.	.	.
4r	.	16f/LL	.	16a\LL	.	4r	.	4r	.	4r	.	4r	.	4r	.	4r	.	4r	.	4r	.
.	.	16g/	.	16b\	.	.	.	.	.	.	.	.	.	.	.	.	.	.	.	.	.
.	.	16a/	.	16cc\	.	.	.	.	.	.	.	.	.	.	.	.	.	.	.	.	.
.	.	16b/JJ	.	16dd\JJ	.	.	.	.	.	.	.	.	.	.	.	.	.	.	.	.	.
4C/	.	16cc\LL	.	16ee\LL	.	4C/	o-	4G/	o-	4e\	o-	4cc\	o-	4cc\	.	4ee\	.	4cc\	.	4ee\	.
.	.	16dd\	.	16ff\	.	.	.	.	.	.	.	.	.	.	.	.	.	.	.	.	.
.	.	16ee\	.	16gg\	.	.	.	.	.	.	.	.	.	.	.	.	.	.	.	.	.
.	.	16cc\JJ	.	16ee\JJ	.	.	.	.	.	.	.	.	.	.	.	.	.	.	.	.	.
=27	=27	=27	=27	=27	=27	=27	=27	=27	=27	=27	=27	=27	=27	=27	=27	=27	=27	=27	=27	=27	=27
!LO:TX:a:t=P:problem=mixed beam	!	!	!	!	!	!	!	!	!	!	!	!	!	!	!	!	!	!	!	!	!
8G\L	4	8cc\L	.	8ee\L	.	4G\	-ſan-	4G/	-ſan-	4e\	-ſan-	4cc\	-ſan-	4cc\	.	4ee\	.	4cc\	.	4ee\	.
8G\	.	16b\L	.	16dd\L	.	.	.	.	.	.	.	.	.	.	.	.	.	.	.	.	.
.	.	16cc\JJ	.	16ee\JJ	.	.	.	.	.	.	.	.	.	.	.	.	.	.	.	.	.
8GG/	3	8b\L	.	8dd\L	.	4G\	-na	4G/	-na	4d\	-na	4b\	-na	4g/	.	4dd\	.	4b\	.	4dd\	.
8GG/	.	16b\L	.	16dd\L	.	.	.	.	.	.	.	.	.	.	.	.	.	.	.	.	.
.	.	16cc\JJ	.	16ee\JJ	.	.	.	.	.	.	.	.	.	.	.	.	.	.	.	.	.
*	*	*	*	*	*	*	*ij	*	*ij	*	*ij	*	*	*	*	*	*	*	*	*	*
8G\	.	16ee\LL	.	16gg\LL	.	4G\	o-	4G/	o-	4f\	o-	4dd\	oſ-	4dd\	.	4ff\	.	4dd\	.	4ff\	.
.	.	16dd\	.	16ff\	.	.	.	.	.	.	.	.	.	.	.	.	.	.	.	.	.
8G\J	.	16cc\	.	16ee\	.	.	.	.	.	.	.	.	.	.	.	.	.	.	.	.	.
.	.	16b\JJ	.	16dd\JJ	.	.	.	.	.	.	.	.	.	.	.	.	.	.	.	.	.
!LO:LB:g=original	!	!	!	!LO:LB:g=original	!	!	!	!	!	!	!	!	!	!LO:LB:g=original	!	!LO:LB:g=original	!	!LO:LB:g=original	!	!LO:LB:g=original	!
=28	=28	=28	=28	=28	=28	=28	=28	=28	=28	=28	=28	=28	=28	=28	=28	=28	=28	=28	=28	=28	=28
!LO:TX:a:t=P:problem=mixed beam	!	!	!	!	!	!	!	!	!	!	!	!	!	!	!	!	!	!	!	!	!
8c\L	4	8f/L	.	8dd\L	.	4c\	-ſan-	4G/	-ſan-	4f\	-ſan-	4dd\	-san-	4dd\	.	4ff\	.	4dd\	.	4ff\	.
8c\	.	16e/L	.	16cc\L	.	.	.	.	.	.	.	.	.	.	.	.	.	.	.	.	.
.	.	16f/JJ	.	16dd\JJ	.	.	.	.	.	.	.	.	.	.	.	.	.	.	.	.	.
8C/	3	8e/L	.	8cc\L	.	4C/	-na	4G/	-na	4e\	-na	4cc\	-na	4cc\	.	4ee\	.	4cc\	.	4ee\	.
*	*	*	*	*	*	*	*Xij	*	*Xij	*	*Xij	*	*	*	*	*	*	*	*	*	*
8C/	.	16e/L	.	16cc\L	.	.	.	.	.	.	.	.	.	.	.	.	.	.	.	.	.
.	.	16f/JJ	.	16dd\JJ	.	.	.	.	.	.	.	.	.	.	.	.	.	.	.	.	.
!	!	!	!	!	!	!	!	!	!	!LO:LB:g=original	!	!	!	!	!	!	!	!	!	!	!
8E/	6	8g/L	.	16ff\LL	.	8E\	in	8c\	in	8g\	in	8cc\	in	4cc\	.	4ee\	.	4ee\	.	4gg\	.
.	.	.	.	16ee\	.	.	.	.	.	.	.	.	.	.	.	.	.	.	.	.	.
8E/J	.	8g/J	.	16dd\	.	8E\	ex-	8c\	ex-	8g\	ex-	8cc\	ex-	.	.	.	.	.	.	.	.
.	.	.	.	16cc\JJ	.	.	.	.	.	.	.	.	.	.	.	.	.	.	.	.	.
!	!	!LO:LB:g=original	!	!	!	!	!	!	!	!	!	!	!	!	!	!	!	!	!	!	!
=29	=29	=29	=29	=29	=29	=29	=29	=29	=29	=29	=29	=29	=29	=29	=29	=29	=29	=29	=29	=29	=29
!LO:TX:a:t=P:problem=mixed beam	!	!	!	!	!	!	!	!	!	!	!	!	!	!	!	!	!	!	!	!	!
8F\L	6	8a/L	.	8dd\L	.	4F\	-cel-	4A/	-cel-	4f\	-cel-	4dd\	-cel-	4dd\	.	4ff\	.	4dd\	.	4ff\	.
8F\	.	8f/J	.	16ff\L	.	.	.	.	.	.	.	.	.	.	.	.	.	.	.	.	.
.	.	.	.	16dd\JJ	.	.	.	.	.	.	.	.	.	.	.	.	.	.	.	.	.
8G\	4	4e/	.	4cc\	.	4G\	.	2G/	.	4e\	.	4cc\	.	4cc\	.	4ee\	.	4cc\	.	4ee\	.
8G\	.	.	.	.	.	.	.	.	.	.	.	.	.	.	.	.	.	.	.	.	.
8GG/	3	4d/	.	4b\	.	4GG/	.	.	.	4d\	.	4b\	.	4g/	.	4dd\	.	4b\	.	4dd\	.
8GG/J	.	.	.	.	.	.	.	.	.	.	.	.	.	.	.	.	.	.	.	.	.
!	!	!	!	!	!	!LO:LB:g=original	!	!LO:LB:g=original	!	!	!	!	!	!	!	!	!	!	!	!	!
=30	=30	=30	=30	=30	=30	=30	=30	=30	=30	=30	=30	=30	=30	=30	=30	=30	=30	=30	=30	=30	=30
8C/L	.	4.e/	.	16cc\LL	.	4C/	-ſis	4G/	-ſis	4e\	-sis	4cc\	-sis	4e/	.	4cc\	.	2cc\	.	2ee\	.
.	.	.	.	16b\	.	.	.	.	.	.	.	.	.	.	.	.	.	.	.	.	.
8C/	.	.	.	16cc\	.	.	.	.	.	.	.	.	.	.	.	.	.	.	.	.	.
.	.	.	.	16dd\JJ	.	.	.	.	.	.	.	.	.	.	.	.	.	.	.	.	.
*	*	*	*	*	*	*	*	*	*	*	*ij	*	*ij	*	*	*	*	*	*	*	*
8C/	.	.	.	8cc/L	.	4c\	in	4c\	in	4e\	in	4cc\	in	4c/	.	4cc\	.	.	.	.	.
8C/	.	8e/	.	8g/J	.	.	.	.	.	.	.	.	.	.	.	.	.	.	.	.	.
8C/	7 5	8e/L	.	8g/L	.	4c\	ex-	4c\	ex-	4g\	ex-	4b-X\	ex-	4c/	.	4cc\	.	4b-X\	.	4gg\	.
.	6 x	.	.	.	.	.	.	.	.	.	.	.	.	.	.	.	.	.	.	.	.
8C/J	.	16f/L	.	16a/L	.	.	.	.	.	.	.	.	.	.	.	.	.	.	.	.	.
.	.	16g/JJ	.	16b-X/JJ	.	.	.	.	.	.	.	.	.	.	.	.	.	.	.	.	.
=31	=31	=31	=31	=31	=31	=31	=31	=31	=31	=31	=31	=31	=31	=31	=31	=31	=31	=31	=31	=31	=31
8C/L	6_ 4_	16g/LL	.	16b/LL	.	2.c\	-cel-	2.c\	-cel-	(2f\	-cel-	(2a\	-cel-	2.c/	.	2.cc\	.	2a/	.	2ff\	.
.	.	16f/	.	16a/	.	.	.	.	.	.	.	.	.	.	.	.	.	.	.	.	.
8C/	.	16e/	.	16g/	.	.	.	.	.	.	.	.	.	.	.	.	.	.	.	.	.
.	.	16f/JJ	.	16a/JJ	.	.	.	.	.	.	.	.	.	.	.	.	.	.	.	.	.
8C/	.	8f/L	.	8a\L	.	.	.	.	.	.	.	.	.	.	.	.	.	.	.	.	.
8C/	.	8a/	.	8cc\	.	.	.	.	.	.	.	.	.	.	.	.	.	.	.	.	.
8C/	n7r 2	8d/	.	8bn\	.	.	.	.	.	4d\)	.	4bn\)	.	.	.	.	.	4bn\	.	4dd\	.
8C/J	.	8f/J	.	8dd\J	.	.	.	.	.	.	.	.	.	.	.	.	.	.	.	.	.
!	!	!	!	!LO:LB:g=original	!	!	!	!	!	!	!	!	!	!	!	!	!	!	!	!	!
=32	=32	=32	=32	=32	=32	=32	=32	=32	=32	=32	=32	=32	=32	=32	=32	=32	=32	=32	=32	=32	=32
4C/	5 3	4e/	.	8dd\L	.	2c\	-sis	2c\	-sis	2e\	-sis	2cc\	-sis	4c/	.	4cc\	.	4cc\	.	4ee\	.
*	*	*	*	*	*	*	*	*	*	*	*Xij	*	*Xij	*	*	*	*	*	*	*	*
.	.	.	.	8cc\J	.	.	.	.	.	.	.	.	.	.	.	.	.	.	.	.	.
4C/	.	4e/	.	4cc\	.	.	.	.	.	.	.	.	.	4c/	.	4cc\	.	4cc\	.	4ee\	.
!	!	!	!	!LO:TX:b:t=Verte Benedictus	!	!	!	!	!	!	!	!LO:TX:b:t=Seque	!	!	!	!	!	!	!	!	!
4r	.	4r	.	4r	.	4r	.	4r	.	4r	.	4r	.	4r	.	4r	.	4r	.	4r	.
==	==	==	==	==	==	==	==	==	==	==	==	==	==	==	==	==	==	==	==	==	==
*-	*-	*-	*-	*-	*-	*-	*-	*-	*-	*-	*-	*-	*-	*-	*-	*-	*-	*-	*-	*-	*-
!!!system-decoration: [(g1)][(g2)][(g3)][(g4)]s11
!!!RDF**kern: | = vertical stroke
!!!ENC: Marcin Jachim
!!!END: 2020-07-13
!!!ENC: Marta Lawrence
!!!END: 2021-11-30
!!!YEC: Copyright 2022 Narodowy Instytut Fryderyka Chopina (https://polishscores.org)
!!!YEM: License CC-BY-4.0 (https://creativecommons.org/licenses/by/4.0)
